X: 2
T: Missa Cela sans plus / Gloria
N: Derived from Mar1001b-Missa_Cela_sans_plus-Gloria.krn
C: Johannes Martini
%%abc-version 2.0
%%abcx-abcm2ps-target-version 5.9.1 (29 Sep 2008)
%%abc-creator hum2abc beta
%%abcx-conversion-date 2019/02/17 07:19:40
%%abc-edited-by Jesse Rodin
%%abc-edited-by Chris Gage 10-23-2013
%%abcx-initial-encoding-date 2013/10/25/
%%humdrum-veritas 3955082248
%%humdrum-veritas-data 3736551411
%%linebreak <none>
%%barnumbers 0
L: 1/4
M: 4/2
Q: 1/2=120
%%staves [1 2 3 4]
V: 1 clef=treble
V: 2 clef=treble-8
V: 3 clef=treble-8
V: 4 clef=bass
K: C
[V:1] z8 | 
[V:2] d8 | 
[V:3] z8 | 
[V:4] D,6F,2- | 
[V:1] z8 | 
[V:2] c4B4 | 
[V:3] z8 | 
[V:4] F,E,A,4G,2 | 
[V:1] z8 | 
[V:2] A3GA2B2- | 
[V:3] z8 | 
[V:4] A,2F,3E,D,C, | 
[V:1] z8 | 
[V:2] BAA4^G2 | 
[V:3] z8 | 
[V:4] D,2A,,2B,,4 | 
[V:1] z8 | 
[V:2] A4A2B2 | 
[V:3] z8 | 
[V:4] A,,4C,2D,2 | 
[V:1] z8 | 
[V:2] c3de2f2 | 
[V:3] z8 | 
[V:4] E,3F,G,2A,2- | 
[V:1] z8 | 
[V:2] e2d4^c2 | 
[V:3] z8 | 
[V:4] A,2G,F,E,4 | 
[V:1] A8 | 
[V:2] d4c2d2 | 
[V:3] z8 | 
[V:4] D,2F,4D,2 | 
[V:1] G4F4 | 
[V:2] B2c2A3B | 
[V:3] z8 | 
[V:4] E,2C,2D,4 | 
[V:1] E8 | 
[V:2] c8 | 
[V:3] A8 | 
[V:4] A,,8 | 
[V:1] E4F4 | 
[V:2] c4A3B | 
[V:3] G4F4 | 
[V:4] C,4D,4 | 
[V:1] G6F2 | 
[V:2] c4B4 | 
[V:3] E8- | 
[V:4] C,4G,4 | 
[V:1] E4D2E2- | 
[V:2] c4d2c2 | 
[V:3] E4G4- | 
[V:4] C,4B,,2C,2- | 
[V:1] E2F2G3F | 
[V:2] e2d2B2c2 | 
[V:3] G8 | 
[V:4] C,2D,2E,4 | 
[V:1] A4z2A2- | 
[V:2] d6cB | 
[V:3] F8- | 
[V:4] D,8 | 
[V:1] A2D2E2G2- | 
[V:2] A3Bc4 | 
[V:3] F4E4- | 
[V:4] D,4C,4- | 
[V:1] GFED^C3B, | 
[V:2] G4A4 | 
[V:3] E8 | 
[V:4] C,2B,,2A,,4 | 
[V:1] D8 | 
[V:2] F4z4 | 
[V:3] D8 | 
[V:4] z2A,4F,2 | 
[V:1] z8 | 
[V:2] G4G2G2 | 
[V:3] z8 | 
[V:4] G,2E,3D,G,2- | 
[V:1] z4G4 | 
[V:2] A2A2B4 | 
[V:3] z8 | 
[V:4] G,2^F,2G,4 | 
[V:1] G2G2A2A2 | 
[V:2] B2B2c3B | 
[V:3] z8 | 
[V:4] E,2G,2F,4 | 
[V:1] B4B4 | 
[V:2] G2B3cd2 | 
[V:3] G4G2G2 | 
[V:4] E,6D,2 | 
[V:1] c4B2d2- | 
[V:2] e2c2d3c | 
[V:3] A2A2B4- | 
[V:4] C,3B,,G,,4 | 
[V:1] dcBAG4 | 
[V:2] BAG3FG2 | 
[V:3] B4c4 | 
[V:4] G,4E,4 | 
[V:1] F4G2A2- | 
[V:2] A4_B2A2 | 
[V:3] d8- | 
[V:4] D,4G,2F,2 | 
[V:1] AGFEF2D2 | 
[V:2] F4D4 | 
[V:3] d8 | 
[V:4] D,3C,B,,A,,B,,2 | 
[V:1] z2A2B2A2- | 
[V:2] G2D2z2FG | 
[V:3] d6c2 | 
[V:4] G,,2z2G,2A,2 | 
[V:1] AGG4^F2 | 
[V:2] A2Bcd4- | 
[V:3] d2B2A4 | 
[V:4] D,2G,2D,4 | 
[V:1] G8 | 
[V:2] d4d4- | 
[V:3] G8- | 
[V:4] G,,8- | 
[V:1] z4d4- | 
[V:2] d2c2B4 | 
[V:3] G4z4 | 
[V:4] G,,8 | 
[V:1] d2c2B2A2 | 
[V:2] A4G2A2- | 
[V:3] z8 | 
[V:4] z8 | 
[V:1] A4G2A2- | 
[V:2] AGF2E2F2 | 
[V:3] z8 | 
[V:4] z8 | 
[V:1] AGF2E4 | 
[V:2] D2A3Bc2 | 
[V:3] z8 | 
[V:4] z8 | 
[V:1] D2F2G2A2- | 
[V:2] d3cB2c2 | 
[V:3] z8 | 
[V:4] z8 | 
[V:1] ABc3BG2- | 
[V:2] A4c3B | 
[V:3] z8 | 
[V:4] z8 | 
[V:1] GFEDG2A2- | 
[V:2] G3FEDd2 | 
[V:3] z8 | 
[V:4] z8 | 
[V:1] AGG4^F2 | 
[V:2] B2G2A4 | 
[V:3] z8 | 
[V:4] z8 | 
[V:1] G8 | 
[V:2] G3AB2c2 | 
[V:3] d6c2 | 
[V:4] G,6C,2 | 
[V:1] z8 | 
[V:2] d2g4f2 | 
[V:3] B4A4 | 
[V:4] G,4D,4 | 
[V:1] z8 | 
[V:2] gfedf2e2 | 
[V:3] G2A4G2 | 
[V:4] E,2C,2D,2E,2 | 
[V:1] D4E4 | 
[V:2] A2d4^c2 | 
[V:3] F4E4 | 
[V:4] D,4A,,4 | 
[V:1] F4G4 | 
[V:2] d6e2- | 
[V:3] D2A3GG2- | 
[V:4] D,4B,,2C,2 | 
[V:1] A4D2E2 | 
[V:2] e2dcB2G2 | 
[V:3] G2^F2G4 | 
[V:4] A,,4G,,4- | 
[V:1] D2G2F2D2- | 
[V:2] GAB2A2GF | 
[V:3] z8 | 
[V:4] G,,4z4 | 
[V:1] D2^C2D4 | 
[V:2] E4D4 | 
[V:3] z8 | 
[V:4] G,4B,2A,2- | 
[V:1] C2D2E2G2 | 
[V:2] z2d4c2 | 
[V:3] z4G4 | 
[V:4] A,2G,F,E,4 | 
[V:1] F4z4 | 
[V:2] d2A2c4 | 
[V:3] A6G2 | 
[V:4] D,2F,4E,2 | 
[V:1] z4G4 | 
[V:2] d4e4 | 
[V:3] F4E4 | 
[V:4] D,2A,2G,2E,2 | 
[V:1] A6G2 | 
[V:2] A3Bcde2- | 
[V:3] z8 | 
[V:4] D,2F,3E,C,2 | 
[V:1] F4E4 | 
[V:2] e2d2e2g2- | 
[V:3] z4G4- | 
[V:4] D,4C,2B,,A,, | 
[V:1] z8 | 
[V:2] gfe2d2f2- | 
[V:3] G4F4 | 
[V:4] G,,A,,B,,C,D,4 | 
[V:1] z4G4- | 
[V:2] fed4cB | 
[V:3] D4E4- | 
[V:4] F,4G,4- | 
[V:1] G4F4 | 
[V:2] c4d2A2- | 
[V:3] E4D4- | 
[V:4] G,4A,4 | 
[V:1] D4E4- | 
[V:2] A2F2G2A2 | 
[V:3] D4z4 | 
[V:4] F,3E,C,2A,,2- | 
[V:1] E4D4 | 
[V:2] E3FG2B2 | 
[V:3] A4B4 | 
[V:4] A,,B,,C,2G,,2G,2 | 
[V:1] A4B4 | 
[V:2] A2F2G3F | 
[V:3] c2A4G2 | 
[V:4] F,4E,4 | 
[V:1] c2A4G2 | 
[V:2] E2A2B2c2 | 
[V:3] A2F2G2E2 | 
[V:4] A,,4E,4 | 
[V:1] A2F2G2E2 | 
[V:2] d2f2e2c2 | 
[V:3] D4z2E2 | 
[V:4] F,3E,C,4 | 
[V:1] D4z2E2 | 
[V:2] d2_B2c4 | 
[V:3] F2G2A4- | 
[V:4] _B,,4A,,4 | 
[V:1] F3GA3G | 
[V:2] d3cA3F | 
[V:3] A4F4 | 
[V:4] D,8 | 
[V:1] FEF2E2D2- | 
[V:2] A2B2cA2G | 
[V:3] D4C2D2 | 
[V:4] z2D,2A,,2_B,,2 | 
[V:1] D2^C2D4 ||  
[V:2] A4A4 ||  
[V:3] E4D4 ||  
[V:4] A,,4A,4 ||  
[V:1]  [K:C] [K:clef=treble][M:2/1]D4F4- | 
[V:2]  [K:C] [K:clef=treble-8][M:2/1]z8 | 
[V:3]  [K:C] [K:clef=treble-8][M:2/1]z8 | 
[V:4]  [K:C] [K:clef=bass][M:2/1]z8 | 
[V:1] F2G2A4 | 
[V:2] z8 | 
[V:3] z8 | 
[V:4] z8 | 
[V:1] D4A4- | 
[V:2] z8 | 
[V:3] z8 | 
[V:4] D,4F,4- | 
[V:1] A2GFE4 | 
[V:2] z8 | 
[V:3] z8 | 
[V:4] F,2G,2A,4 | 
[V:1] D2F2E2F2- | 
[V:2] z8 | 
[V:3] z8 | 
[V:4] D,4A,4- | 
[V:1] F2ED^C4 | 
[V:2] z8 | 
[V:3] z8 | 
[V:4] A,2G,F,E,4 | 
[V:1] D2F4ED | 
[V:2] z8 | 
[V:3] z8 | 
[V:4] D,8 | 
[V:1] EDCB,A,4 | 
[V:2] z8 | 
[V:3] z8 | 
[V:4] C,4D,4- | 
[V:1] z2D4CB, | 
[V:2] z8 | 
[V:3] z8 | 
[V:4] D,2F,4E,D, | 
[V:1] C2D2E4 | 
[V:2] z8 | 
[V:3] z8 | 
[V:4] E,D,C,B,,A,,4 | 
[V:1] A,4B,2C2- | 
[V:2] z8 | 
[V:3] z8 | 
[V:4] z2D,4C,B,, | 
[V:1] CB,A,4G,2 | 
[V:2] z8 | 
[V:3] z8 | 
[V:4] C,2D,2E,4 | 
[V:1] A,2C2D2E2- | 
[V:2] z8 | 
[V:3] z8 | 
[V:4] A,,4B,,2C,2- | 
[V:1] EDE2F2G2 | 
[V:2] z8 | 
[V:3] z8 | 
[V:4] C,B,,A,,4G,,2 | 
[V:1] E4F2G2- | 
[V:2] z8 | 
[V:3] z8 | 
[V:4] A,,2C,2D,2E,2- | 
[V:1] GFG2A2D2 | 
[V:2] z8 | 
[V:3] z8 | 
[V:4] E,D,E,2F,2G,2 | 
[V:1] G3FEDE2 | 
[V:2] z8 | 
[V:3] z8 | 
[V:4] E,2G,3F,G,2 | 
[V:1] A,2D4^C2 | 
[V:2] z8 | 
[V:3] z8 | 
[V:4] A,2D,2E,4 | 
[V:1] D4z4 | 
[V:2] d8 | 
[V:3] z8 | 
[V:4] D,6F,2- | 
[V:1] z8 | 
[V:2] c4B4 | 
[V:3] z8 | 
[V:4] F,E,A,4G,2 | 
[V:1] A8 | 
[V:2] A3Bc2d2 | 
[V:3] z8 | 
[V:4] A,2F,4E,2 | 
[V:1] G4F4 | 
[V:2] e3fd4- | 
[V:3] z8 | 
[V:4] C,4D,4 | 
[V:1] E3FG2A2 | 
[V:2] d2^cB^c4 | 
[V:3] A8 | 
[V:4] A,,4z4 | 
[V:1] B3cA4- | 
[V:2] d4A4 | 
[V:3] G4F4 | 
[V:4] z8 | 
[V:1] A2^G^FG4 | 
[V:2] B8 | 
[V:3] E8 | 
[V:4] z8 | 
[V:1] A4F4 | 
[V:2] A6B2 | 
[V:3] z8 | 
[V:4] A,,4D,4 | 
[V:1] E4D2E2- | 
[V:2] c4g3f | 
[V:3] G8- | 
[V:4] C,4B,,2C,2- | 
[V:1] E2F2G4 | 
[V:2] edd4^c2 | 
[V:3] G8 | 
[V:4] C,2D,2E,4 | 
[V:1] A4D4 | 
[V:2] d4A4 | 
[V:3] F8 | 
[V:4] D,4F,4 | 
[V:1] z2E3FG2- | 
[V:2] B4c4- | 
[V:3] E8- | 
[V:4] G,4C,4 | 
[V:1] GFED^C3B, | 
[V:2] c2BAG4 | 
[V:3] E8 | 
[V:4] z4E,4 | 
[V:1] D8 | 
[V:2] A4F2G2- | 
[V:3] D8- | 
[V:4] F,2D,3C,G,,2- | 
[V:1] z8 | 
[V:2] G2FEF2ED | 
[V:3] D8 | 
[V:4] G,,A,,B,,C,D,4 | 
[V:1] G8 | 
[V:2] C2E3FG2 | 
[V:3] z8 | 
[V:4] E,2C,4B,,A,, | 
[V:1] G4A4 | 
[V:2] D2G4^F2 | 
[V:3] z8 | 
[V:4] B,,4A,,4 | 
[V:1] B4G2B2- | 
[V:2] G8 | 
[V:3] z8 | 
[V:4] G,,4C,2B,,2 | 
[V:1] Bcd4c2 | 
[V:2] G4A4 | 
[V:3] z8 | 
[V:4] G,,2B,,2A,,4 | 
[V:1] d2B3AG2- | 
[V:2] B4G2B2- | 
[V:3] z8 | 
[V:4] G,,2G,3F,E,D, | 
[V:1] G2F2E4 | 
[V:2] Bcd4^c2 | 
[V:3] z8 | 
[V:4] E,2D,2A,4 | 
[V:1] D4G,3A, | 
[V:2] d2B3AG2- | 
[V:3] z8 | 
[V:4] D,2G,3F,E,2- | 
[V:1] B,CD2E2C2 | 
[V:2] G2F2E4 | 
[V:3] z8 | 
[V:4] E,2D,2C,2A,,2 | 
[V:1] D4G4 | 
[V:2] D2G3ABc | 
[V:3] z8 | 
[V:4] B,,2G,,2z2G,2 | 
[V:1] F2G2A2B2- | 
[V:2] d2e2c2d2- | 
[V:3] z8 | 
[V:4] D,2C,2F,2D,2 | 
[V:1] BAG4^F2 | 
[V:2] d2cBA4 | 
[V:3] z8 | 
[V:4] G,4D,4 | 
[V:1] G4D2E2- | 
[V:2] G4z4 | 
[V:3] G8- | 
[V:4] G,,3A,,B,,2C,2- | 
[V:1] EFG2A2B2 | 
[V:2] z8 | 
[V:3] G8 | 
[V:4] C,D,E,3D,G,2- | 
[V:1] A2c4BA | 
[V:2] z8 | 
[V:3] A8 | 
[V:4] G,2F,E,F,4 | 
[V:1] G3AB2A2- | 
[V:2] G6D2 | 
[V:3] B4d4- | 
[V:4] z8 | 
[V:1] A2GFE4 | 
[V:2] F2G2A4 | 
[V:3] d4^c4 | 
[V:4] z8 | 
[V:1] D4z4 | 
[V:2] D3EF2G2- | 
[V:3] d8 | 
[V:4] F,3G,A,2_B,2- | 
[V:1] z8 | 
[V:2] GABcd2g2- | 
[V:3] d4B4 | 
[V:4] B,A,G,3F,E,2- | 
[V:1] z8 | 
[V:2] g2^fe^f4 | 
[V:3] c4A4 | 
[V:4] E,2D,C,D,4 | 
[V:1] z8 | 
[V:2] g4d4 | 
[V:3] G8 | 
[V:4] G,,6G,2- | 
[V:1] z8 | 
[V:2] d6c2 | 
[V:3] z8 | 
[V:4] G,2F,2G,2A,2- | 
[V:1] z8 | 
[V:2] B2G2A4 | 
[V:3] z8 | 
[V:4] A,G,G,4F,2 | 
[V:1] d6c2 | 
[V:2] G2A2B2A2- | 
[V:3] z8 | 
[V:4] G,2D,4F,2 | 
[V:1] B2G2A4 | 
[V:2] AGG4F2 | 
[V:3] z8 | 
[V:4] G,2E,2D,4 | 
[V:1] G2A2B2A2- | 
[V:2] G2D4F2 | 
[V:3] d6c2 | 
[V:4] G,,4z4 | 
[V:1] AGG4^F2 | 
[V:2] G2E2D4 | 
[V:3] B2G2A4 | 
[V:4] z8 | 
[V:1] G4z4 | 
[V:2] z4d4 | 
[V:3] G2A2B2A2- | 
[V:4] G,,4D,4 | 
[V:1] z8 | 
[V:2] e4c4 | 
[V:3] AGG4^F2 | 
[V:4] C,2B,,2A,,4 | 
[V:1] z4G4 | 
[V:2] B8 | 
[V:3] G8 | 
[V:4] G,,8 | 
[V:1] A4F4 | 
[V:2] A4d4 | 
[V:3] z8 | 
[V:4] D,8 | 
[V:1] E8 | 
[V:2] c2A2B4 | 
[V:3] z4G4 | 
[V:4] A,,4E,4 | 
[V:1] z4D4 | 
[V:2] c2A4B2 | 
[V:3] A4F4 | 
[V:4] A,,4D,4 | 
[V:1] E4G4 | 
[V:2] c2d2e4 | 
[V:3] E8 | 
[V:4] z4G,4 | 
[V:1] F4A4 | 
[V:2] c4d4 | 
[V:3] z4D4 | 
[V:4] A,4F,4 | 
[V:1] G4F2E2- | 
[V:2] G4c4 | 
[V:3] E4G4 | 
[V:4] E,4C,4 | 
[V:1] E2D2D4- | 
[V:2] B2A4G2 | 
[V:3] F4D4 | 
[V:4] D,4B,,4 | 
[V:1] D2^CB,C4 | 
[V:2] A8 | 
[V:3] E8 | 
[V:4] A,,8 | 
[V:1] [M:3/1]D8A4- | 
[V:2] [M:3/1]F8F4 | 
[V:3] [M:3/1]D12 | 
[V:4] [M:3/1]A,8F,4- | 
[V:1] A4G4F4 | 
[V:2] A4B4d4 | 
[V:3] z12 | 
[V:4] F,4E,4D,4 | 
[V:1] E8z4 | 
[V:2] c8B4 | 
[V:3] A8G4 | 
[V:4] A,,8z4 | 
[V:1] D4E4G4 | 
[V:2] A4B4c4 | 
[V:3] F4E8 | 
[V:4] A,4G,4E,4 | 
[V:1] F8D4 | 
[V:2] d6c2A4 | 
[V:3] z12 | 
[V:4] D,6E,2F,4 | 
[V:1] E8D4 | 
[V:2] c8A4 | 
[V:3] G8F4 | 
[V:4] C,8D,4 | 
[V:1] E4F6E2 | 
[V:2] c4d4A4 | 
[V:3] G4D4F4- | 
[V:4] C,4B,,4D,4- | 
[V:1] D8^C4 | 
[V:2] B4A6G2 | 
[V:3] F4E8 | 
[V:4] D,4A,,8 | 
[V:1] D12 | 
[V:2] A8z4 | 
[V:3] D12 | 
[V:4] F,8D,4 | 
[V:1] z12 | 
[V:2] G8A4 | 
[V:3] z12 | 
[V:4] E,4C,6B,,2 | 
[V:1] G8A4 | 
[V:2] B8c4 | 
[V:3] z12 | 
[V:4] G,,8z4 | 
[V:1] B8c4 | 
[V:2] d8c4 | 
[V:3] z12 | 
[V:4] G,,8A,,4 | 
[V:1] d8z4 | 
[V:2] B4G4E4 | 
[V:3] G8A4 | 
[V:4] B,,8C,4 | 
[V:1] D8G4 | 
[V:2] F8G4 | 
[V:3] B8c4 | 
[V:4] D,8E,4 | 
[V:1] F6G2A4 | 
[V:2] A8A4 | 
[V:3] d12- | 
[V:4] D,6E,2F,4 | 
[V:1] B4A6G2 | 
[V:2] G4A8 | 
[V:3] d8c4 | 
[V:4] G,4D,4F,4 | 
[V:1] G8^F4 | 
[V:2] d8d4 | 
[V:3] B4A8 | 
[V:4] G,4D,8 | 
[V:1] G12 | 
[V:2] B8d4 | 
[V:3] G12 | 
[V:4] G,,12 | 
[V:1] z4z4d4 | 
[V:2] c4A4B4 | 
[V:3] z12 | 
[V:4] A,,8G,,4 | 
[V:1] c4A4B4 | 
[V:2] A8G4 | 
[V:3] z4z4d4 | 
[V:4] A,,4C,4G,,4 | 
[V:1] A8D4 | 
[V:2] E8z4 | 
[V:3] c4A4B4 | 
[V:4] A,,8D,4 | 
[V:1] E4F4G4 | 
[V:2] c8B4 | 
[V:3] A8G4 | 
[V:4] C,4A,,4B,,4 | 
[V:1] E6F2G4 | 
[V:2] c4e6d2 | 
[V:3] A8G4 | 
[V:4] A,,8z4 | 
[V:1] A4B4c4 | 
[V:2] d8^c4 | 
[V:3] F4E8 | 
[V:4] z12 | 
[V:1] F8E4 | 
[V:2] d8z4 | 
[V:3] D8C4 | 
[V:4] D,8E,4 | 
[V:1] F4E6D2 | 
[V:2] A8_B4- | 
[V:3] D4E4F4 | 
[V:4] D,4C,4D,4 | 
[V:1] D8^C4 | 
[V:2] B4A8 | 
[V:3] G4E8 | 
[V:4] G,,4A,,8 | 
[V:1] D12 | 
[V:2] F8D4 | 
[V:3] D12 | 
[V:4] A,8F,4 | 
[V:1] z12 | 
[V:2] F8G4 | 
[V:3] A8G4 | 
[V:4] D,8E,4 | 
[V:1] z12 | 
[V:2] D4E4F4 | 
[V:3] A4c4d4 | 
[V:4] F,4E,4D,4- | 
[V:1] z12 | 
[V:2] D4z4d4 | 
[V:3] B4A6G2 | 
[V:4] D,2C,2D,4B,,4 | 
[V:1] z12 | 
[V:2] e8c4 | 
[V:3] G8^F4 | 
[V:4] C,4A,,8 | 
[V:1] z4z4G4 | 
[V:2] B8G4 | 
[V:3] G12 | 
[V:4] G,,12 | 
[V:1] A8F4 | 
[V:2] F6G2A2B2 | 
[V:3] z12 | 
[V:4] D,8D,4 | 
[V:1] E4F4G4 | 
[V:2] c8B4 | 
[V:3] z4z4G4 | 
[V:4] C,6D,2E,4 | 
[V:1] E4z4D4 | 
[V:2] c8A4 | 
[V:3] A8F4 | 
[V:4] A,,8D,4 | 
[V:1] G8E4 | 
[V:2] c8B4 | 
[V:3] E12 | 
[V:4] C,8G,4 | 
[V:1] F4E4D4 | 
[V:2] c6B2A4 | 
[V:3] z4z4D4 | 
[V:4] A,8F,4 | 
[V:1] E6D2C2B,2 | 
[V:2] B8c4 | 
[V:3] G8E4 | 
[V:4] E,8A,,4 | 
[V:1] A,6B,2C4 | 
[V:2] d8A4 | 
[V:3] F8E4 | 
[V:4] D,8C,4 | 
[V:1] D4E6D2 | 
[V:2] _B4c4F4 | 
[V:3] D4C4D4- | 
[V:4] _B,,4A,,4B,,4- | 
[V:1] D8^C4 | 
[V:2] G4A8 | 
[V:3] D4E8 | 
[V:4] B,,4A,,8 | 
[V:1] D12 |]  
[V:2] A12 |]  
[V:3] D12 |]  
[V:4] A,12 |]  



